img/tripadvisor_icon.svg

<svg height="30" viewBox="0 0 30 30" width="30" xmlns="http://www.w3.org/2000/svg"><g fill="#fff"><path d="m14.9996667 29.867c-8.1971667 0-14.86583337-6.6688333-14.86583337-14.8658333 0-8.19833337 6.66883334-14.8681667 14.86583337-14.8681667 8.1976666 0 14.8665 6.66983333 14.8665 14.8681667 0 8.197-6.6688334 14.8658333-14.8665 14.8658333zm0-28.40066667c-7.46183337 0-13.53250003 6.07183334-13.53250003 13.53483337 0 7.4618333 6.07066666 13.5325 13.53250003 13.5325 7.4621666 0 13.5331666-6.0708334 13.5331666-13.5325 0-7.46300003-6.071-13.53483337-13.5331666-13.53483337z"/><path d="m19.9896667 9.94833333c-3.3948334-1.32966666-6.7888334-1.294-10.1951667-.0275 2.7506667.44466667 4.4625 1.99566667 5.1386667 4.76233337.6693333-2.722 2.3383333-4.2768334 5.0565-4.73483337zm-6.1754509 5.63299997c.0112842-2.4835-1.9388825-4.4431666-4.43038247-4.4530318-2.42383333-.0091348-4.39516666 1.9596985-4.42616666 4.4210318-.02933334 2.3918334 1.986 4.4166667 4.42216666 4.4423334 2.41416667.0271666 4.42216667-1.9716667 4.43438247-4.4103334zm2.22878-.0143333c.0033375 2.4411667 1.9801709 4.4396667 4.3993375 4.4491897 2.4541667.0078103 4.457-1.9818564 4.4668697-4.439523.009797-2.4571667-1.977203-4.4313334-4.459703-4.4301672-2.4471667.0003338-4.4098333 1.9703338-4.4065042 4.4205005zm9.9891709.5196667c-.2773334.7991666-.4283334 1.6721666-.8531667 2.3825-1.848 3.0923333-6.1058333 3.5608333-8.6543333 1.0078333-.137-.1365-.277-.2718333-.442-.434-.3851667.5695-.761 1.1245-1.17 1.7271667-.3965-.5818334-.7728334-1.133-1.18-1.7291667-.1471667.1516667-.2711667.2961667-.4095.4258333-1.6373334 1.5378334-3.55183337 2.0403334-5.6816667 1.332-2.0925-.6951666-3.32166667-2.2081666-3.724-4.3825-.0195-.1113333-.05866667-.2185-.0885-.3298333v-1.0848333c.194-.9245.44366667-1.8275.9945-2.6173334.05533333-.0788333.0765-.2356666.03516667-.3145-.33233334-.6413333-.68416667-1.2708333-1.02966667-1.904v-.0983333c1.01816667-.0013333 2.03783333.033 3.05433333-.0153333 1.03283334-.0478334 1.77566667-.84500003 2.724-1.15450003 4.25549997-1.39016667 8.38099997-1.29283334 12.36433337.9165.2455.13633333.5523333.21350003.8336666.22200003 1.001.0306666 2.0038334.0176666 3.0048334.0251666.0266666 0 .0543333.0243334.0738333.0346667-.2883333.6173333-.5851667 1.2303333-.8538333 1.8556667-.0565.1296666-.0646667.3456666.0071666.4528333.5306667.7928333.8141667 1.674.9948334 2.5971667z"/><path d="m20.4723333 13.7164905c-.9873333-.0031572-1.8005.7818428-1.8241666 1.7578428-.0218334.9795.8166666 1.82 1.8145 1.8158488.9833333-.0026821 1.7893333-.8026821 1.7945113-1.7828488.0034887-.9741666-.805678-1.7871666-1.7848447-1.7908428m2.7131736 1.7926762c-.0035069 1.513-1.2083402 2.7295-2.7100069 2.7367009-1.5301667.0074657-2.7531667-1.2163676-2.7473541-2.7465343.0058541-1.5215 1.2050208-2.733 2.7083541-2.7341666 1.5416667-.0001667 2.7523333 1.2081666 2.7490069 2.744m-13.8290069-1.7901667c-.986-.0148333-1.80333333.761-1.835 1.7393333-.0325.9825.794 1.8268334 1.79333333 1.8348334.97366667.0086666 1.79433337-.7956667 1.80899997-1.7706667.0145-.9733333-.7853333-1.7888333-1.7673333-1.8035m2.6893333 1.8281667c-.0211666 1.5178333-1.235 2.7118333-2.74316663 2.6985-1.52283334-.0146667-2.736-1.2561667-2.71816667-2.7838334.017-1.5 1.2675-2.7235 2.7545-2.6968333 1.5555.03 2.729 1.2346667 2.7068333 2.7821667"/><path d="m20.4408333 16.3956667c-.5078333-.0085-.903-.4206667-.8841666-.9226667.0201666-.4838333.4111666-.8645.8928333-.867.499-.0031667.9208333.413.9143333.9011667-.0063333.502-.4168333.897-.923.8885m-11.0968333.0025c-.53483333.0078333-.9075-.3496667-.91833333-.8768334-.01033334-.5213333.36716666-.9153333.88083333-.9208333.50883333-.0041667.9238333.3873333.9351667.8848333.0116666.4925-.3946667.9053334-.8976667.9128334"/></g></svg>

<svg xmlns="http://www.w3.org/2000/svg" width="30" height="30" viewBox="0 0 30 30">
  <g fill="#FFF">
    <path d="M14.9996667,29.867 C6.8025,29.867 0.133833333,23.1981667 0.133833333,15.0011667 C0.133833333,6.80283333 6.80266667,0.133 14.9996667,0.133 C23.1973333,0.133 29.8661667,6.80283333 29.8661667,15.0011667 C29.8661667,23.1981667 23.1973333,29.867 14.9996667,29.867 Z M14.9996667,1.46633333 C7.53783333,1.46633333 1.46716667,7.53816667 1.46716667,15.0011667 C1.46716667,22.463 7.53783333,28.5336667 14.9996667,28.5336667 C22.4618333,28.5336667 28.5328333,22.4628333 28.5328333,15.0011667 C28.5328333,7.53816667 22.4618333,1.46633333 14.9996667,1.46633333 Z"/>
    <path d="M19.9896667,9.94833333 C16.5948333,8.61866667 13.2008333,8.65433333 9.7945,9.92083333 C12.5451667,10.3655 14.257,11.9165 14.9331667,14.6831667 C15.6025,11.9611667 17.2715,10.4063333 19.9896667,9.94833333 L19.9896667,9.94833333 Z M13.8142158,15.5813333 C13.8255,13.0978333 11.8753333,11.1381667 9.38383333,11.1283015 C6.96,11.1191667 4.98866667,13.088 4.95766667,15.5493333 C4.92833333,17.9411667 6.94366667,19.966 9.37983333,19.9916667 C11.794,20.0188333 13.802,18.02 13.8142158,15.5813333 L13.8142158,15.5813333 Z M16.0429958,15.567 C16.0463333,18.0081667 18.0231667,20.0066667 20.4423333,20.0161897 C22.8965,20.024 24.8993333,18.0343333 24.909203,15.5766667 C24.919,13.1195 22.932,11.1453333 20.4495,11.1464995 C18.0023333,11.1468333 16.0396667,13.1168333 16.0429958,15.567 L16.0429958,15.567 Z M26.0321667,16.0866667 C25.7548333,16.8858333 25.6038333,17.7588333 25.179,18.4691667 C23.331,21.5615 19.0731667,22.03 16.5246667,19.477 C16.3876667,19.3405 16.2476667,19.2051667 16.0826667,19.043 C15.6975,19.6125 15.3216667,20.1675 14.9126667,20.7701667 C14.5161667,20.1883333 14.1398333,19.6371667 13.7326667,19.041 C13.5855,19.1926667 13.4615,19.3371667 13.3231667,19.4668333 C11.6858333,21.0046667 9.77133333,21.5071667 7.6415,20.7988333 C5.549,20.1036667 4.31983333,18.5906667 3.9175,16.4163333 C3.898,16.305 3.85883333,16.1978333 3.829,16.0865 L3.829,15.0016667 C4.023,14.0771667 4.27266667,13.1741667 4.8235,12.3843333 C4.87883333,12.3055 4.9,12.1486667 4.85866667,12.0698333 C4.52633333,11.4285 4.1745,10.799 3.829,10.1658333 L3.829,10.0675 C4.84716667,10.0661667 5.86683333,10.1005 6.88333333,10.0521667 C7.91616667,10.0043333 8.659,9.20716667 9.60733333,8.89766667 C13.8628333,7.5075 17.9883333,7.60483333 21.9716667,9.81416667 C22.2171667,9.9505 22.524,10.0276667 22.8053333,10.0361667 C23.8063333,10.0668333 24.8091667,10.0538333 25.8101667,10.0613333 C25.8368333,10.0613333 25.8645,10.0856667 25.884,10.096 C25.5956667,10.7133333 25.2988333,11.3263333 25.0301667,11.9516667 C24.9736667,12.0813333 24.9655,12.2973333 25.0373333,12.4045 C25.568,13.1973333 25.8515,14.0785 26.0321667,15.0016667 L26.0321667,16.0866667 L26.0321667,16.0866667 Z"/>
    <path d="M20.4723333 13.7164905C19.485 13.7133333 18.6718333 14.4983333 18.6481667 15.4743333 18.6263333 16.4538333 19.4648333 17.2943333 20.4626667 17.2901821 21.446 17.2875 22.252 16.4875 22.257178 15.5073333 22.2606667 14.5331667 21.4515 13.7201667 20.4723333 13.7164905M23.1855069 15.5091667C23.182 17.0221667 21.9771667 18.2386667 20.4755 18.2458676 18.9453333 18.2533333 17.7223333 17.0295 17.7281459 15.4993333 17.734 13.9778333 18.9331667 12.7663333 20.4365 12.7651667 21.9781667 12.765 23.1888333 13.9733333 23.1855069 15.5091667M9.3565 13.719C8.3705 13.7041667 7.55316667 14.48 7.5215 15.4583333 7.489 16.4408333 8.3155 17.2851667 9.31483333 17.2931667 10.2885 17.3018333 11.1091667 16.4975 11.1238333 15.5225 11.1383333 14.5491667 10.3385 13.7336667 9.3565 13.719M12.0458333 15.5471667C12.0246667 17.065 10.8108333 18.259 9.30266667 18.2456667 7.77983333 18.231 6.56666667 16.9895 6.5845 15.4618333 6.6015 13.9618333 7.852 12.7383333 9.339 12.765 10.8945 12.795 12.068 13.9996667 12.0458333 15.5471667"/>
    <path d="M20.4408333 16.3956667C19.933 16.3871667 19.5378333 15.975 19.5566667 15.473 19.5768333 14.9891667 19.9678333 14.6085 20.4495 14.606 20.9485 14.6028333 21.3703333 15.019 21.3638333 15.5071667 21.3575 16.0091667 20.947 16.4041667 20.4408333 16.3956667M9.344 16.3981667C8.80916667 16.406 8.4365 16.0485 8.42566667 15.5213333 8.41533333 15 8.79283333 14.606 9.3065 14.6005 9.81533333 14.5963333 10.2303333 14.9878333 10.2416667 15.4853333 10.2533333 15.9778333 9.847 16.3906667 9.344 16.3981667"/>
  </g>
</svg>
